icons/folder-claude.svg

<svg xmlns="http://www.w3.org/2000/svg" viewBox="0 0 16 16">
<path id="folder" fill="#ff7043" d="m6.922 3.768-.644-.536A1 1 0 0 0 5.638 3H2a1 1 0 0 0-1 1v8a1 1 0 0 0 1 1h12a1 1 0 0 0 1-1V5a1 1 0 0 0-1-1H7.562a1 1 0 0 1-.64-.232" />
<path id="motive" fill="#ffccbc" d="M 8.8339844,5 8.6328125,5.0449219 8.3242188,5.4375 8.4609375,6.0410156 9.9667969,8.7578125 9.5839844,8.4648438 7.4804687,6.9199219 H 7.3789062 L 7.0292969,6.8691406 6.7285156,7.21875 6.828125,7.6171875 6.9785156,7.8164062 9.8847656,9.8613281 9.9277344,9.9042969 8.7832031,9.8125 6.2265625,9.6621094 6,9.7402344 v 0.2207031 l 0.2265625,0.2500005 0.2011719,0.05078 3.453125,0.177734 -2,1.267578 -0.8515625,0.59961 v 0.273437 l 0.1992187,0.228516 h 0.5019531 l 2.6855473,-1.830078 -2.1835941,2.875 -0.050781,0.248047 0.3007813,0.15039 0.1992187,-0.05078 0.703125,-0.796875 1.5292974,-2.007813 -0.578125,3.105469 0.15039,0.298828 L 10.738281,15 l 0.300782,-0.09961 0.148437,-0.199219 0.253906,-3.017578 1.701172,2.521484 0.351563,0.04687 0.201172,-0.09961 0.04883,-0.150391 v -0.398437 l -1.177735,-1.720703 -0.02734,-0.183594 1.255859,1.105469 0.851562,0.599609 0.150391,0.04883 0.150391,-0.199219 -0.04883,-0.25 -2.306641,-2.144531 -0.0293,-0.05273 0.08008,0.0039 2.806641,0.697266 L 16,11.275391 v -0.216797 l -0.201172,-0.298828 -0.300781,-0.199219 -1.251953,-0.09961 -1.451172,-0.132813 3.054687,-0.7148437 0.09961,-0.3496094 V 9.1132813 L 15.599609,8.9140625 12.876953,9.3496094 14.699219,6.8691406 14.75,6.625 14.626953,6.2421875 14.496094,6.0820312 14.005859,5.9804687 13.523438,6.3691406 11.851563,8.5527344 12.341797,5.6210937 12.091797,5.2734375 11.839844,5.1738281 11.539063,5.3730469 11.339844,5.7714844 11,8.7617188 10.869141,8.3847656 9.4316406,5.2109375 9.234375,5.0585937 Z" />
</svg>

<svg xmlns="http://www.w3.org/2000/svg" viewBox="0 0 16 16"><path id="folder" fill="#ff7043" d="m6.922 3.768-.644-.536A1 1 0 0 0 5.638 3H2a1 1 0 0 0-1 1v8a1 1 0 0 0 1 1h12a1 1 0 0 0 1-1V5a1 1 0 0 0-1-1H7.562a1 1 0 0 1-.64-.232"/><path id="motive" fill="#ffccbc" d="m8.834 5-.201.045-.309.393.137.603 1.506 2.717-.383-.293L7.48 6.92h-.1l-.35-.05-.3.349.1.398.15.2L9.885 9.86l.043.043-1.145-.091-2.556-.15L6 9.74v.22l.227.25.2.052 3.454.177-2 1.268-.852.6v.273l.2.229h.501l2.686-1.83-2.184 2.875-.05.248.3.15.2-.05.703-.798 1.53-2.008-.58 3.106.151.299.252.199.301-.1.149-.199.253-3.017 1.702 2.521.351.047.201-.1.05-.15v-.398l-1.179-1.721-.027-.184 1.256 1.106.851.6.15.048.151-.2-.049-.25-2.306-2.144-.03-.052.08.004 2.807.697.551-.233v-.216l-.201-.3-.301-.198-1.252-.1-1.451-.133 3.055-.715.1-.35v-.15l-.35-.199-2.723.436 1.822-2.48.051-.245-.123-.383-.13-.16-.491-.102-.483.39-1.671 2.183.49-2.932-.25-.348-.252-.1-.3.2-.2.398-.34 2.99-.13-.376L9.431 5.21l-.198-.152Z"/></svg>
